X: 36238
T: Sea Image
R: slip jig
M: 9/8
K: Dmajor
|:FEF D2d cAG|FED AGF GFE|FEF D2d cAG|F2A G2B AGE:|
D2d cAd cAG|F2d A2F GFE|D2d cAd fed|F2A G2B AGE:|

